X: 22939
T: Larry The Beer Drinker
R: jig
M: 6/8
K: Dmajor
|:DEF FEF|AFE F2E|DEF FEF|AFD EFE|
DEF FEF|AFA d2d|cBA BAF|1 AFE EFE:|2 AFE E2f||
|:ecA ABA|ecA A2f|ecA Ace|fdB B2f|
ecA fdB|ecA a^gf|ecA BAF|1 AFE E2f:|2 AFE EBc||
|:dFF FEF|AFE FBc|dFF FEF|AFD E2c|
dFF FEF|AFA d2d|cBA BAF|1 AFE EBc:|2 AFE EFE||

